Papirus/22x22/panel/prime-intel.svg

<?xml version="1.0" encoding="UTF-8" standalone="no"?>
<svg xmlns:dc="http://purl.org/dc/elements/1.1/" xmlns:cc="http://creativecommons.org/ns#" xmlns:rdf="http://www.w3.org/1999/02/22-rdf-syntax-ns#" xmlns:svg="http://www.w3.org/2000/svg" xmlns="http://www.w3.org/2000/svg" xmlns:xlink="http://www.w3.org/1999/xlink" id="svg4431" height="22" width="22" version="1.0">
    <metadata id="metadata16">
        <rdf:RDF>
            <cc:Work rdf:about="">
                <dc:format>
                    image/svg+xml
                </dc:format>
                <dc:type rdf:resource="http://purl.org/dc/dcmitype/StillImage"/>
                <dc:title/>
            </cc:Work>
        </rdf:RDF>
    </metadata>
    <defs id="defs4433">
        <linearGradient id="linearGradient4019">
            <stop id="stop4021" style="stop-color:#000000;stop-opacity:1" offset="0"/>
            <stop id="stop4023" style="stop-color:#000000;stop-opacity:0" offset="1"/>
        </linearGradient>
        <filter style="color-interpolation-filters:sRGB" id="filter3831">
            <feGaussianBlur id="feGaussianBlur3833" stdDeviation="0.6375"/>
        </filter>
        <clipPath id="clipPath3823">
            <path d="M 108.8125,58 C 107.25437,58 106,59.254375 106,60.8125 l 0,24.375 C 106,86.745625 107.25437,88 108.8125,88 l 24.375,0 C 134.74562,88 136,86.745625 136,85.1875 l 0,-24.375 C 136,59.254375 134.74562,58 133.1875,58 l -24.375,0 z m 7.1875,4.5 10,0 0,8.75 5,0 -10,13.75 -10,-13.75 5,0 0,-8.75 z" id="path3825" style="fill:#ffffff;fill-opacity:1;stroke:none"/>
        </clipPath>
        <linearGradient x1="65.262688" y1="64.205269" x2="65.262688" y2="50.068527" id="linearGradient3812" xlink:href="#linearGradient4019" gradientUnits="userSpaceOnUse" gradientTransform="matrix(0.625,0,0,0.625,78.5,32.25)"/>
        <filter style="color-interpolation-filters:sRGB" id="filter3806">
            <feGaussianBlur id="feGaussianBlur3808" stdDeviation="1.2"/>
        </filter>
        <linearGradient x1="70" y1="54" x2="70" y2="75.095024" id="linearGradient3788" xlink:href="#linearGradient3737" gradientUnits="userSpaceOnUse" gradientTransform="translate(0,4)"/>
        <linearGradient x1="56" y1="72" x2="88" y2="72" id="linearGradient3773" xlink:href="#linearGradient3778" gradientUnits="userSpaceOnUse" gradientTransform="matrix(0.9375,0,0,0.9375,-140.5,3.5)"/>
        <linearGradient x1="65.262688" y1="64.205269" x2="65.262688" y2="50.068527" id="linearGradient3832" xlink:href="#linearGradient3737" gradientUnits="userSpaceOnUse" gradientTransform="matrix(0.625,0,0,0.625,28.5,31.25)"/>
        <filter style="color-interpolation-filters:sRGB" id="filter3174">
            <feGaussianBlur id="feGaussianBlur3176" stdDeviation="1.71"/>
        </filter>
        <linearGradient id="linearGradient3737">
            <stop id="stop3739" style="stop-color:#ffffff;stop-opacity:1" offset="0"/>
            <stop id="stop3741" style="stop-color:#ffffff;stop-opacity:0" offset="1"/>
        </linearGradient>
        <linearGradient x1="45.447727" y1="92.539597" x2="45.447727" y2="7.0165396" id="ButtonShadow" gradientUnits="userSpaceOnUse" gradientTransform="scale(1.0058652,0.994169)">
            <stop id="stop3750" style="stop-color:#000000;stop-opacity:1" offset="0"/>
            <stop id="stop3752" style="stop-color:#000000;stop-opacity:0.58823532" offset="1"/>
        </linearGradient>
        <linearGradient id="linearGradient3778">
            <stop id="stop3780" style="stop-color:#499119;stop-opacity:1" offset="0"/>
            <stop id="stop3782" style="stop-color:#8fd625;stop-opacity:1" offset="1"/>
        </linearGradient>
    </defs>
    <g style="display:none" id="layer2" transform="translate(-226.65795,-45.198097)">
        <path style="opacity:0.9;fill:url(#ButtonShadow);fill-opacity:1;fill-rule:nonzero;stroke:none;filter:url(#filter3174)" id="rect3745" d="M 11,7 48,5 85,7 c 3.324,0 6,2.676 6,6 l 0,73 c 0,3.324 -2.676,6 -6,6 L 11,92 C 7.676,92 5,89.324 5,86 L 5,13 C 5,9.676 7.676,7 11,7 Z"/>
    </g>
    <g style="display:none" id="layer4" transform="translate(-226.65795,-45.198097)">
        <rect style="opacity:0.6;fill:#000000;fill-opacity:1;stroke:none;filter:url(#filter3806)" id="rect3790" transform="matrix(0,-1,1,0,0,4)" y="56" x="-86" ry="2.8125" rx="2.8125" height="30" width="30"/>
        <rect style="fill:url(#linearGradient3773);fill-opacity:1;stroke:none" id="rect2993" transform="matrix(0,-1,1,0,0,0)" y="56" x="-88" ry="2.8125" rx="2.8125" height="30" width="30"/>
        <path style="opacity:0.5;fill:url(#linearGradient3788);fill-opacity:1;stroke:none" id="rect3775" d="M 58.8125,58 C 57.254375,58 56,59.254375 56,60.8125 l 0,24.375 c 0,0.873066 0.410816,1.641163 1.03125,2.15625 C 57.02841,87.289908 57,87.242129 57,87.1875 l 0,-24.375 C 57,61.254375 58.17075,60 59.625,60 l 22.75,0 C 83.82925,60 85,61.254375 85,62.8125 l 0,24.375 c 0,0.05463 -0.02841,0.102408 -0.03125,0.15625 C 85.589184,86.828663 86,86.060566 86,85.1875 l 0,-24.375 C 86,59.254375 84.745625,58 83.1875,58 l -24.375,0 z"/>
        <path style="display:inline;opacity:0.6;fill:url(#linearGradient3812);fill-opacity:1;fill-rule:nonzero;stroke:none;filter:url(#filter3831)" id="path3810" clip-path="url(#clipPath3823)" transform="translate(-50,0)" d="m 116,63.5 0,8.75 -5,0 10,13.75 10,-13.75 -5,0 0,-8.75 -10,0 z"/>
        <path style="display:inline;fill:url(#linearGradient3832);fill-opacity:1;fill-rule:nonzero;stroke:none" id="path4278" d="m 66,62.5 0,8.75 -5,0 10,13.75 10,-13.75 -5,0 0,-8.75 -10,0 z"/>
    </g>
    <path id="rect13" d="M 4,3 C 2.892,3 2,3.7924549 2,4.7773438 L 2,17.222656 C 2,18.207545 2.892,19 4,19 l 14,0 c 1.108,0 2,-0.792455 2,-1.777344 L 20,4.7773438 C 20,3.7924549 19.108,3 18,3 L 4,3 Z M 3,7 4,7 4,8 3,8 3,7 Z m 7,1 1,0 0,1 1,0 0,1 -1,0 0,2 c 0,0.257977 0.05298,1 0.324219,1 L 12,13 l 0,1 -1,0 c -0.930807,0 -1,-1.170012 -1,-1.800781 L 10,8 Z m 8,0 1,0 0,6 C 18.140173,13.91814 18,13.593695 18,13 L 18,8 Z M 3,9 4,9 4,14 C 3.1400993,13.918176 2.9999994,13.09392 3,12.5 L 3,9 Z M 5,9 7.5,9 C 8.4975928,8.9883526 9,9.867096 9,10.5 L 9,14 8,14 8,10.5 C 8,10.235807 7.6639691,10 7.3300781,10 L 6,10 6,14 5,14 5,9 Z M 15.097656,9 C 16.306412,9 17,10.054465 17,11.439453 L 17,12 14.144531,12 c 0.0462,0.561442 0.39041,0.96875 0.986328,0.96875 0.502711,0 0.752192,-0.151203 1.042969,-0.460938 l 0.697266,0.72461 C 16.422471,13.709539 15.953812,14 15.123047,14 14.03897,14 13,13.360604 13,11.496094 13,9.9016 13.905484,9 15.097656,9 Z m -0.05078,1.011719 c -0.38621,0 -0.683917,0.217566 -0.808594,0.509765 -0.07474,0.17611 -0.099,0.262079 -0.111328,0.478516 L 15.875,11 c -0.02496,-0.528657 -0.246569,-0.988281 -0.828125,-0.988281 z" mask="none" style="fill:#ffffff;opacity:1"/>
</svg>

<?xml version="1.0" encoding="UTF-8" standalone="no"?>
<svg id="svg4431" xmlns:rdf="http://www.w3.org/1999/02/22-rdf-syntax-ns#" xmlns="http://www.w3.org/2000/svg" height="22" width="22" version="1.0" xmlns:cc="http://creativecommons.org/ns#" xmlns:xlink="http://www.w3.org/1999/xlink" xmlns:dc="http://purl.org/dc/elements/1.1/">
 <metadata id="metadata16">
  <rdf:RDF>
   <cc:Work rdf:about="">
    <dc:format>image/svg+xml</dc:format>
    <dc:type rdf:resource="http://purl.org/dc/dcmitype/StillImage"/>
    <dc:title/>
   </cc:Work>
  </rdf:RDF>
 </metadata>
 <defs id="defs4433">
  <filter id="filter3831" style="color-interpolation-filters:sRGB">
   <feGaussianBlur id="feGaussianBlur3833" stdDeviation="0.6375"/>
  </filter>
  <clipPath id="clipPath3823">
   <path id="path3825" fill="#fff" d="m108.81 58c-1.56 0-2.81 1.254-2.81 2.812v24.375c0 1.559 1.25 2.813 2.81 2.813h24.375c1.57 0 2.82-1.254 2.82-2.812v-24.375c0-1.559-1.25-2.813-2.81-2.813h-24.375zm7.1875 4.5h10v8.75h5l-10 13.75-10-13.75h5v-8.75z"/>
  </clipPath>
  <linearGradient id="linearGradient3812" y2="50.069" gradientUnits="userSpaceOnUse" x2="65.263" gradientTransform="matrix(.625 0 0 .625 78.5 32.25)" y1="64.205" x1="65.263">
   <stop id="stop4021" offset="0"/>
   <stop id="stop4023" stop-opacity="0" offset="1"/>
  </linearGradient>
  <filter id="filter3806" style="color-interpolation-filters:sRGB">
   <feGaussianBlur id="feGaussianBlur3808" stdDeviation="1.2"/>
  </filter>
  <linearGradient id="linearGradient3788" y2="75.095" xlink:href="#linearGradient3737" gradientUnits="userSpaceOnUse" x2="70" gradientTransform="translate(0,4)" y1="54" x1="70"/>
  <linearGradient id="linearGradient3773" y2="72" gradientUnits="userSpaceOnUse" x2="88" gradientTransform="matrix(.9375 0 0 .9375 -140.5 3.5)" y1="72" x1="56">
   <stop id="stop3780" stop-color="#499119" offset="0"/>
   <stop id="stop3782" stop-color="#8fd625" offset="1"/>
  </linearGradient>
  <linearGradient id="linearGradient3832" y2="50.069" xlink:href="#linearGradient3737" gradientUnits="userSpaceOnUse" x2="65.263" gradientTransform="matrix(.625 0 0 .625 28.5 31.25)" y1="64.205" x1="65.263"/>
  <filter id="filter3174" style="color-interpolation-filters:sRGB">
   <feGaussianBlur id="feGaussianBlur3176" stdDeviation="1.71"/>
  </filter>
  <linearGradient id="linearGradient3737">
   <stop id="stop3739" stop-color="#fff" offset="0"/>
   <stop id="stop3741" stop-color="#fff" stop-opacity="0" offset="1"/>
  </linearGradient>
  <linearGradient id="ButtonShadow" y2="7.0165" gradientUnits="userSpaceOnUse" x2="45.448" gradientTransform="scale(1.0059 .99417)" y1="92.54" x1="45.448">
   <stop id="stop3750" offset="0"/>
   <stop id="stop3752" stop-opacity=".58824" offset="1"/>
  </linearGradient>
 </defs>
 <g id="layer2" display="none" transform="translate(-226.66 -45.198)">
  <path id="rect3745" opacity=".9" d="m11 7 37-2 37 2c3.324 0 6 2.676 6 6v73c0 3.324-2.676 6-6 6h-74c-3.324 0-6-2.676-6-6v-73c0-3.324 2.676-6 6-6z" filter="url(#filter3174)" fill="url(#ButtonShadow)"/>
 </g>
 <g id="layer4" display="none" transform="translate(-226.66 -45.198)">
  <rect id="rect3790" opacity=".6" rx="2.8125" ry="2.8125" transform="matrix(0,-1,1,0,0,4)" filter="url(#filter3806)" width="30" y="56" x="-86" height="30"/>
  <rect id="rect2993" rx="2.8125" ry="2.8125" transform="rotate(-90)" width="30" y="56" x="-88" height="30" fill="url(#linearGradient3773)"/>
  <path id="rect3775" opacity=".5" d="m58.812 58c-1.558 0-2.812 1.254-2.812 2.812v24.375c0 0.87307 0.41082 1.6412 1.0312 2.1562-0.003-0.053-0.031-0.101-0.031-0.155v-24.375c0-1.559 1.171-2.813 2.625-2.813h22.75c1.454 0 2.625 1.254 2.625 2.812v24.375c0 0.05463-0.02841 0.10241-0.03125 0.15625 0.62-0.514 1.031-1.282 1.031-2.155v-24.375c0-1.559-1.254-2.813-2.812-2.813h-24.375z" fill="url(#linearGradient3788)"/>
  <path id="path3810" opacity=".6" filter="url(#filter3831)" d="m116 63.5v8.75h-5l10 13.75 10-13.75h-5v-8.75h-10z" clip-path="url(#clipPath3823)" transform="translate(-50)" display="inline" fill="url(#linearGradient3812)"/>
  <path id="path4278" d="m66 62.5v8.75h-5l10 13.75 10-13.75h-5v-8.75h-10z" display="inline" fill="url(#linearGradient3832)"/>
 </g>
 <path id="rect13" d="m4 3c-1.108 0-2 0.7925-2 1.7773v12.446c0 0.985 0.892 1.777 2 1.777h14c1.108 0 2-0.79246 2-1.7773v-12.446c0-0.9845-0.892-1.777-2-1.777h-14zm-1 4h1v1h-1v-1zm7 1h1v1h1v1h-1v2c0 0.25798 0.05298 1 0.32422 1h0.676v1h-1c-0.93081 0-1-1.17-1-1.8008v-4.199zm8 0h1v6c-0.86-0.082-1-0.406-1-1v-5zm-15 1h1v5c-0.8599-0.082-1-0.906-1-1.5v-3.5zm2 0h2.5c0.9976-0.0116 1.5 0.8671 1.5 1.5v3.5h-1v-3.5c0-0.264-0.336-0.5-0.6699-0.5h-1.3301v4h-1v-5zm10.098 0c1.208 0 1.902 1.054 1.902 2.439v0.561h-2.855c0.0462 0.56144 0.39041 0.96875 0.98633 0.96875 0.50271 0 0.75219-0.1512 1.043-0.46094l0.69727 0.72461c-0.449 0.477-0.917 0.767-1.748 0.767-1.084 0-2.123-0.639-2.123-2.504 0-1.5944 0.905-2.496 2.098-2.496zm-0.05078 1.0117c-0.38621 0-0.68392 0.21757-0.80859 0.50976-0.07474 0.17611-0.099 0.26208-0.11133 0.47852h1.748c-0.02496-0.52866-0.24657-0.98828-0.82812-0.98828z" fill="#fff"/>
</svg>
